X:101
T:Enlisting Serjeant - Hard
C:Taken from R. Hard, Sth. Brent, by H.Fl.S.
%%VWML:SBG-1-1-539-0
F:http://www.vwml.org/record/SBG/1/1/539
Z:Original Sibleius Transcription by Martin and Shan Graebe
L:1/4
M:4/4
I:linebreak $
K:G
G | G B d e/d/ | (d B) G B/d/ | c A c B | G3 G | G B d e | d B c d |$ e d c B/c/ | d3 G | 
G B d e | d B c d | e d c B | (A B) c A | d2"^2nd voice" G F |$ E2"^1st voice" c d | 
e2"^2nd voice" A G | (F D)"^together" d d | d e d e | (d B) G B/d/ | c A B A | G2  |] 
T:Enlisting Serjeant - Parsons
T:Taken down from J. Parsons, by F.W.B.
L:1/8
M:4/8
I:linebreak $
K:Eb
E | E G B B | BGE A | G A F3/2 F/ | E3 E | E G B | c B A B | cBAG |$ B3 E | E G B B | cBA B | 
cBAG | F2 G F | B B E3/2 D/ | C B, G B |$ c c F3/2 E/ | D B, G A | B>BBB | BGE A | G A F3/2 E/ | 
E3  |] 



